src/actions/24/format-text-lowercase.svg

<svg viewBox="0 0 24 24" xmlns="http://www.w3.org/2000/svg">
 <defs>
  <style type="text/css">.ColorScheme-Text {
        color:#2e3440;
      }
      .ColorScheme-Highlight {
        color:#88c0d0;
      }</style>
 </defs>
 <path class="ColorScheme-Text" d="m13 8v8 4h1v-1.3613a4 4 0 0 0 3 1.3613 4 4 0 0 0 4-4 4 4 0 0 0-4-4 4 4 0 0 0-3 1.3613v-5.3613h-1zm-6 4a4 4 0 0 0-4 4 4 4 0 0 0 4 4 4 4 0 0 0 3-1.3613v1.3613h1v-8h-1v1.3613a4 4 0 0 0-3-1.3613zm0 1a3 3 0 0 1 3 3 3 3 0 0 1-3 3 3 3 0 0 1-3-3 3 3 0 0 1 3-3zm10 0a3 3 0 0 1 3 3 3 3 0 0 1-3 3 3 3 0 0 1-3-3 3 3 0 0 1 3-3z" fill="currentColor"/>
 <path class="ColorScheme-Highlight" d="m14 4 3 4 3-4h-6z" fill="currentColor"/>
</svg>

<svg xmlns="http://www.w3.org/2000/svg" viewBox="0 0 24 24">
  <defs id="defs3051">
    <style type="text/css" id="current-color-scheme">
      .ColorScheme-Text {
        color:#2e3440;
      }
      .ColorScheme-Highlight {
        color:#88c0d0;
      }
      </style>
  </defs>
 <path 
     style="fill:currentColor;fill-opacity:1;stroke:none" 
     d="M 13 8 L 13 16 L 13 20 L 14 20 L 14 18.638672 A 4 4 0 0 0 17 20 A 4 4 0 0 0 21 16 A 4 4 0 0 0 17 12 A 4 4 0 0 0 14 13.361328 L 14 8 L 13 8 z M 7 12 A 4 4 0 0 0 3 16 A 4 4 0 0 0 7 20 A 4 4 0 0 0 10 18.638672 L 10 20 L 11 20 L 11 12 L 10 12 L 10 13.361328 A 4 4 0 0 0 7 12 z M 7 13 A 3 3 0 0 1 10 16 A 3 3 0 0 1 7 19 A 3 3 0 0 1 4 16 A 3 3 0 0 1 7 13 z M 17 13 A 3 3 0 0 1 20 16 A 3 3 0 0 1 17 19 A 3 3 0 0 1 14 16 A 3 3 0 0 1 17 13 z "
     class="ColorScheme-Text"
     />
 <path 
     style="fill:currentColor;fill-opacity:1;stroke:none" 
     d="M 14 4 L 17 8 L 20 4 L 14 4 z "
     class="ColorScheme-Highlight"
     />
</svg>
